packages/core/src/svgs/tokens/mono/FORTH.svg

<svg width="24" height="24" viewBox="0 0 24 24" fill="none" xmlns="http://www.w3.org/2000/svg">
<path d="M2.34814 22V21.0622C2.67229 20.9656 3.10677 20.9931 3.45159 20.8897L3.67918 20.8069C4.02401 20.669 4.34125 20.4346 4.57574 20.1449C4.74125 19.938 4.87919 19.7104 5.00332 19.469C5.17573 19.1448 5.32746 18.8069 5.46539 18.4689C5.74125 17.7794 6.01712 17.0897 6.27919 16.3931L9.07235 9.23449C9.96883 6.91725 10.7964 4.61379 11.7068 2.30345C12.0172 2.21378 12.293 2.08965 12.6034 2C13.0171 3.04826 13.4241 4.12414 13.7965 5.18621C15.024 8.66208 16.2516 12.1311 17.5068 15.5862C17.8517 16.5311 18.1965 17.4759 18.555 18.4207C18.7543 18.9702 19.0059 19.499 19.3069 20.0001C19.596 20.4605 20.0498 20.7934 20.5757 20.931C20.9344 21.0208 21.2931 21.0758 21.6516 21.138V22H14.0723V21.131C14.0723 21.131 14.1 21.1035 14.1619 21.0966C14.4585 21.0552 15.1138 21 15.4034 20.9242C15.5795 20.871 15.7502 20.8016 15.9137 20.7173C16.1964 20.5586 16.3137 20.3034 16.2861 19.9793C16.2745 19.8324 16.2491 19.6869 16.2103 19.5448C16.1482 19.3242 16.0724 19.1034 16.0033 18.8967C14.4999 14.662 13.0241 10.4276 11.555 6.17932C11.5413 6.13104 11.5344 6.08276 11.4861 6.04138L11.4448 6.06897C11.4318 6.09023 11.4224 6.11355 11.4171 6.13793C10.6999 8.2276 9.93439 10.2966 9.18258 12.3656C8.61284 13.8938 8.06336 15.4296 7.53437 16.9724C7.32748 17.5932 7.12056 18.2139 6.92746 18.8415C6.85851 19.0828 6.79644 19.3242 6.76195 19.5725C6.73456 19.7389 6.72993 19.9082 6.74816 20.0759C6.76884 20.2967 6.88609 20.4898 7.0654 20.6277C7.4447 20.9035 8.83789 21.0622 9.24469 21.1587V22H2.34814Z" fill="white"/>
</svg>

<svg xmlns="http://www.w3.org/2000/svg" width="24" height="24" fill="none" viewBox="0 0 24 24">
    <path fill="#fff" d="M2.348 22v-.938c.324-.096.759-.069 1.104-.172l.227-.083c.345-.138.662-.372.897-.662.165-.207.303-.435.427-.676.173-.324.324-.662.462-1 .276-.69.552-1.38.814-2.076l2.793-7.159c.897-2.317 1.724-4.62 2.635-6.93.31-.09.586-.214.896-.304a89 89 0 0 1 1.194 3.186c1.227 3.476 2.455 6.945 3.71 10.4.345.945.69 1.89 1.048 2.835q.3.826.752 1.58c.289.46.743.792 1.269.93.358.09.717.145 1.076.207V22h-7.58v-.869s.028-.027.09-.034c.297-.042.952-.097 1.241-.173q.265-.08.51-.207c.283-.158.4-.414.373-.738a2.4 2.4 0 0 0-.076-.434c-.062-.22-.138-.442-.207-.648-1.503-4.235-2.979-8.47-4.448-12.718-.014-.048-.02-.096-.069-.138l-.041.028a.2.2 0 0 0-.028.069c-.717 2.09-1.483 4.159-2.234 6.228q-.855 2.293-1.649 4.606a89 89 0 0 0-.607 1.87 5 5 0 0 0-.165.73 2 2 0 0 0-.014.504.8.8 0 0 0 .317.552c.38.276 1.773.434 2.18.53V22z"/>
</svg>
